X:1
T:Crux fidelis
T:Juan IV king of Portugal
T:Source  : Recueils de musique ancienne---Paris---Pacini ---1843. Editor : André Vierendeels (19/06/17).
T:(1615)
T:Notes : Original clefs : C1, C3, C4, F4 Original note values have been halved
T:Crux fidelis
T:©
T:©
T:©
C:Juan IV king of Portugal
Z:©
%%score [ 1 2 3 4 ]
L:1/8
Q:1/4=120
M:4/4
K:F
V:1 treble nm="Soprano" snm="S"
V:2 treble-8 nm="Tenor 1" snm="T 1"
V:3 treble-8 nm="Tenor 2" snm="T 2"
V:4 bass nm="Bass" snm="B"
V:1
 F4 F4 | F6 ED | !fermata!E8 | z2 D4 B2 | F4 F4 | !fermata!F8 | ^F6 F2 | G2 G2 G4 | F2 F2 E4 | %9
w: Crux fi-|de- * *|lis,|in _|ter o-|mnes,|ar- bor|u- na no-|* bi- lis|
 z2 G4 G2 | F4 E4 | z2 F4 F2 | G4 G4 | z2 G4 F2 | z2 _E4 D2 | F4 F4 | !fermata!F8 | z2 F4 F2 | %18
w: nul- la|syl- va|ta- lem|pro- fert|fron- de|flo- re|ger- mi-|ne,|dul- ce|
 F4 G2 _A2 | G4 z4 | z2 F4 F2 | F4- FG B2 | G6 F_E | F8 | z2 _E4 E2 | F4 G2 _A2 | G2 F4 ED | %27
w: li- * *|gnum|dul- ces|cla- * * *||vos|dul- ce|pon- dus sus-||
 E2 E2 F4- | !fermata!F8 || D4 C4 | !fermata!C8 |] %31
w: * ti- net.|_|A- *|men.|
V:2
 c6 d2 | c4 c4 | !fermata!c8 | z2 f4 _e2- | e2 d4 cB | !fermata!c8 | d6 d2 | d2 _e2 d2 g2- | %8
w: Crux fi-|* de-|lis,|in ter|_ o- * *|mnes,|ar- bor|u- na no- *|
 g2 g2 g4 | z2 e4 e2 | c4 c4 | z2 c4 d2 | _e4 e4 | z2 _e4 =B2 | z2 c4 F2 | f2 _e4 dc | %16
w: * bi- lis|nul- la|syl- va|ta- lem|pro- fert|fron- de|flo- re|flo- re _ _|
 d2 cB !fermata!c4 | z2 c4 c2 | d4 e2 f2- | f2 e2 z4 | z2 d4 _e2- | e2 dc d_e f2- | f_e e4 dc | %23
w: ger- mi- * ne,|dul- ce|li- * *|* gnum|dul- ces|_ _ _ cla- * *||
 d8 | z2 G4 G2 | d4 _e2 f2 | g4 G4 | c2 c2 c4- | !fermata!c8 || B4 G4 | !fermata!A8 |] %31
w: vos,|dul- ce|pon- dus _|sus- *|* ti- net.|_|A- *|men.|
V:3
 A6 B2- | B2 A4 GF | !fermata!G8 | z2 B2 _A2 G2 | F2 B4 AG | !fermata!A8 | A6 A2 | =B2 c4 BA | %8
w: Crux fi|de- * * *|lis,|in- * ter|o- * * *|mnes,|ar- bor|u- na- * *|
 =B2 B2 c4 | z2 c4 B2 | A4 G4 | z2 A4 A2 | B4 B4 | z2 c2 d2 d2 | z2 G2 A2 B2 | z2 c3 c B2- | %16
w: no- bi- lis|nul- la|syl- va|ta- lem|pro- fert|fron- * de|flo- * re|ger- * *|
 B2 AG !fermata!A4 | z2 A4 A2 | B6 _A2 | c4 z4 | z2 B4 c2- | c2 d_e d3 c | B8 | B8 | z2 B4 B2 | %25
w: * mi- * ne,|dul- ce|li- *|gnum|dul- *|* ces _ cla- *||vos,|dul- ce|
 =B4 c4 | d4 c4- | c2 B4 AG | !fermata!A8 || F4 E4 | !fermata!F8 |] %31
w: pon- dus|sus- *|* * ti- *|net.|A- *|men.|
V:4
 F,4 F,4 | F,8 | !fermata!C,8 | z2 B,,4 B,,2 | B,,8 | !fermata!F,8 | D,6 D,2 | G,2 G,2 G,,4- | %8
w: Crux fi-|de-|lis,|in- ter|o-|mnes,|ar- bor|u- na no-|
 G,,2 G,,2 C,4 | z2 C,4 C,2 | C,4 C,4 | z2 F,4 F,2 | _E,4 E,4 | z2 _E,4 D,2 | z2 C,4 B,,2 | %15
w: * bi- lis|nul- la|syl- va|ta- lem|pro- fert|fron- de|flo- re|
 A,,4 B,,4 | !fermata!F,,8 | z2 F,4 _E,2 | D,4 C,4- | C,4 z4 | z2 B,,4 A,,G,, | A,,4 B,,4 | _E,8 | %23
w: ger- mi-|ne,|dul- ce|li- gnum|_|dul- ces _|cla- *||
 B,,8 | z2 _E,4 E,2 | D,4 C,4 | =B,,4 C,4- | C,4 F,,4- | !fermata!F,,8 || B,,4 C,4 | %30
w: vos,|dul- ce|pon- dus|sue- ti-|* net.|_|A- *|
 !fermata!F,,8 |] %31
w: men.|

